_site/images/registration/learn-more.svg

<svg height="93" viewBox="0 0 87 93" width="87" xmlns="http://www.w3.org/2000/svg" xmlns:xlink="http://www.w3.org/1999/xlink"><mask id="a" fill="#fff"><path d="m10 0h90c5.522847 0 10 4.4771525 10 10v114c0 5.522847-4.477153 10-10 10h-90c-5.5228475 0-10-4.477153-10-10v-114c0-5.5228475 4.4771525-10 10-10z" fill="#fff" fill-rule="evenodd"/></mask><g fill="#0b7a76" fill-opacity=".27" mask="url(#a)" transform="translate(-23 -41)"><path d="m92.9155493.91127242c-3.4718925-.59214015-6.9875602-.8969372-10.5105499-.91123078-12.0199749-.00975729-23.7892715 3.40307863-33.9049994 9.83170056-10.1417218-6.34421484-21.9091636-9.67328613-33.9049994-9.59190299-3.5229897.01429359-7.03865737.31909064-10.51054986.91123079-2.34949943.40107286-4.05482445 2.43548131-4.02016422 4.79595149v57.55141791c-.02100191 1.4267078.60065899 2.7885909 1.69608884 3.7156508 1.09542984.9270599 2.5508647 1.3230184 3.97088964 1.0803007 14.0222781-2.4039716 28.4308581.8990368 39.9594636 9.1602674l.5812286.3357166h.5327928c1.08496.4476221 2.30554.4476221 3.3905 0h.5327928l.5812286-.3357166c11.4489263-8.4464553 25.8646328-11.9414171 39.9594636-9.687822 1.4200249.2427176 2.8754598-.1532409 3.9708896-1.0803007 1.0954299-.9270599 1.7170908-2.2889431 1.6960889-3.7156508v-57.55141797c-.1038421-2.2513609-1.7768021-4.12741084-4.0201642-4.50819441zm-49.2591206 63.73819538c-8.9611715-4.6679568-18.9358548-7.1041889-29.0614281-7.0980082-1.5983786 0-3.1967571 0-4.84357138 0v-47.95951497c1.61318528-.09205845 3.23038598-.09205845 4.84357138 0 10.3332063-.01130753 20.4409089 2.99119087 29.0614281 8.63271267zm43.5921421-6.9061702c-1.6468143 0-3.2451928 0-4.8435714 0-10.1255733-.0061807-20.1002566 2.4300514-29.0614281 7.0980083v-46.6166486c8.6205192-5.6415218 18.7282218-8.6440202 29.0614281-8.63271267 1.6131854-.09205845 3.2303861-.09205845 4.8435714 0zm5.6669785 19.9031987c-3.4718925-.5921401-6.9875602-.8969372-10.5105499-.9112307-12.0199749-.0097573-23.7892715 3.4030786-33.9049994 9.8317005-10.1157279-6.4286219-21.8850245-9.8414578-33.9049994-9.8317005-3.5229897.0142935-7.03865737.3190906-10.51054986.9112307-1.27344397.2000999-2.41375411.8946963-3.16834145 1.9299299-.75458733 1.0352335-1.06116481 2.3256514-.85182277 3.5854144.51247157 2.5929936 3.04646095 4.2871562 5.66697848 3.7888016 14.0222781-2.4039716 28.4308581.8990368 39.9594636 9.1602674 1.6815151 1.1854539 3.9370277 1.1854539 5.6185428 0 11.5286055-8.2612306 25.9371855-11.564239 39.9594636-9.1602674 2.6205175.4983546 5.1545069-1.195808 5.6669785-3.7888016.209342-1.259763-.0972355-2.5501809-.8518228-3.5854144-.7545873-1.0352336-1.8948975-1.72983-3.1683414-1.9299299z" transform="translate(23 41)"/></g></svg>

<?xml version="1.0" encoding="UTF-8"?>
<svg width="87px" height="93px" viewBox="0 0 87 93" version="1.1" xmlns="http://www.w3.org/2000/svg" xmlns:xlink="http://www.w3.org/1999/xlink">
    <!-- Generator: Sketch 52.6 (67491) - http://www.bohemiancoding.com/sketch -->
    <title>comments</title>
    <desc>Created with Sketch.</desc>
    <defs>
        <path d="M10,0 L100,0 C105.522847,-1.01453063e-15 110,4.4771525 110,10 L110,124 C110,129.522847 105.522847,134 100,134 L10,134 C4.4771525,134 6.76353751e-16,129.522847 0,124 L0,10 C-6.76353751e-16,4.4771525 4.4771525,1.01453063e-15 10,0 Z" id="path-1"></path>
    </defs>
    <g id="Sign-up" stroke="none" stroke-width="1" fill="none" fill-rule="evenodd">
        <g id="1.6--confirmation-message" transform="translate(-1232.000000, -755.000000)">
            <g id="Group-4" transform="translate(842.000000, 675.000000)">
                <g id="comments" transform="translate(367.000000, 39.000000)">
                    <mask id="mask-2" fill="white">
                        <use xlink:href="#path-1"></use>
                    </mask>
                    <g id="Mask"></g>
                    <g id="book-open" mask="url(#mask-2)" fill="#0B7A76" fill-opacity="0.27" fill-rule="nonzero">
                        <g transform="translate(23.000000, 41.000000)" id="Shape">
                            <path d="M92.9155493,0.911272422 C89.4436568,0.31913227 85.9279891,0.0143352208 82.4049994,4.16381383e-05 C70.3850245,-0.00971564862 58.6157279,3.40312027 48.5,9.8317422 C38.3582782,3.48752736 26.5908364,0.158456071 14.5950006,0.239839213 C11.0720109,0.254132796 7.55634323,0.558929845 4.08445074,1.15107 C1.73495131,1.55214286 0.0296262946,3.58655131 0.0642865232,5.94702149 L0.0642865232,63.4984394 C0.0432846146,64.9251472 0.664945512,66.2870303 1.76037536,67.2140902 C2.8558052,68.1411501 4.31124006,68.5371086 5.731265,68.2943909 C19.7535431,65.8904193 34.1621231,69.1934277 45.6907286,77.4546583 L46.2719572,77.7903749 L46.80475,77.7903749 C47.88971,78.237997 49.11029,78.237997 50.19525,77.7903749 L50.7280428,77.7903749 L51.3092714,77.4546583 C62.7581977,69.008203 77.1739042,65.5132412 91.268735,67.7668363 C92.6887599,68.0095539 94.1441948,67.6135954 95.2396246,66.6865356 C96.3350545,65.7594757 96.9567154,64.3975925 96.9357135,62.9708848 L96.9357135,5.41946683 C96.8318714,3.16810593 95.1589114,1.29205599 92.9155493,0.911272422 Z M43.6564287,64.6494678 C34.6952572,59.981511 24.7205739,57.5452789 14.5950006,57.5514596 C12.996622,57.5514596 11.3982435,57.5514596 9.75142922,57.5514596 L9.75142922,9.59194463 C11.3646145,9.49988618 12.9818152,9.49988618 14.5950006,9.59194463 C24.9282069,9.5806371 35.0359095,12.5831355 43.6564287,18.2246573 L43.6564287,64.6494678 Z M87.2485708,57.7432976 C85.6017565,57.7432976 84.003378,57.7432976 82.4049994,57.7432976 C72.2794261,57.7371169 62.3047428,60.173349 53.3435713,64.8413059 L53.3435713,18.2246573 C61.9640905,12.5831355 72.0717931,9.5806371 82.4049994,9.59194463 C84.0181848,9.49988618 85.6353855,9.49988618 87.2485708,9.59194463 L87.2485708,57.7432976 Z M92.9155493,77.6464963 C89.4436568,77.0543562 85.9279891,76.7495591 82.4049994,76.7352656 C70.3850245,76.7255083 58.6157279,80.1383442 48.5,86.5669661 C38.3842721,80.1383442 26.6149755,76.7255083 14.5950006,76.7352656 C11.0720109,76.7495591 7.55634323,77.0543562 4.08445074,77.6464963 C2.81100677,77.8465962 1.67069663,78.5411926 0.916109293,79.5764262 C0.161521958,80.6116597 -0.145055524,81.9020776 0.0642865232,83.1618406 C0.576758089,85.7548342 3.11074747,87.4489968 5.731265,86.9506422 C19.7535431,84.5466706 34.1621231,87.849679 45.6907286,96.1109096 C47.3722437,97.2963635 49.6277563,97.2963635 51.3092714,96.1109096 C62.8378769,87.849679 77.2464569,84.5466706 91.268735,86.9506422 C93.8892525,87.4489968 96.4232419,85.7548342 96.9357135,83.1618406 C97.1450555,81.9020776 96.838478,80.6116597 96.0838907,79.5764262 C95.3293034,78.5411926 94.1889932,77.8465962 92.9155493,77.6464963 Z"></path>
                        </g>
                    </g>
                </g>
            </g>
        </g>
    </g>
</svg>
